X: 89
M:4/4
L:1/8
K:G
sd<cs "tr"g2 sd<cs "tr"g2|g2 Bc dBdg|GABc sdBs g2|edcB ADFA|
d<B "tr"g2 d<B "tr"g2|g2 sBcs dBdg|bagf egdb|caBg ADFA||

